X:27
T:Connie Haughey's* (r)
B:NFID.244b ("untitled reel")
027conn_h
S:PT
N:First part not repeated in source.
L:1/8
M:C
R:reel
Q:360
K:Em
E2GE BEGE|D2FD ADFD|E2GE BEGA|(3B^cd Ac BEE2:|
gfef gfeg|fdDd fdDf|g2ef gfed|efga baef|
gfef gfeg|fdDd fdD2|efga bage|dBA^c BEE2||

